X: 12962
T: Fiddler, The
R: strathspey
M: 4/4
K: Amajor
|:a/|{ef}e/c3/2 {gcd}c3/2B/ {gBd}B/{e}A3/2 {GAG}A3/2a/|{ef}e/c3/2 {gcd}c/e3/2 {gfg}f2 {g}f/a3/2|
{ef}e/c3/2 {gcd}c3/2B/ {gBd}B/{e}A3/2 {GAG}A3/2e/|{g}f/g/a {ef}e3/2a/ {cd}c/{e}B3/2 {GdG}B3/2:|
a/|{ef}e/c3/2 {gcd}c/e3/2 {gfg}f2 {g}f/a3/2|{ef}e/c3/2 {gcd}c/a3/2 {ef}e/c3/2 {gcd}c/f3/2|
{ef}e/c3/2 {gcd}c/e3/2 {gfg}f2 {g}f/a3/2|{ef}e3/2a/ {cd}c/a3/2 {cd}c/{e}B3/2 {GdG}B3/2f/|
{ef}e/c3/2 {gcd}c/e3/2 {gfg}f2 {g}f/a3/2|{ef}e/c3/2 {gcd}c/a3/2 {ef}e/c3/2 {gcd}c/e3/2|
{g}f/g/a {ef}e3/2a/ {Gdc}d/a3/2 {cd}c3/2e/|{g}f/g/a {ef}e3/2a/ {cd}c/{e}B3/2 {GdG}B3/2||

